X: 262
T: Jack Robinson
M: 4/4
L: 1/8
R: Reel
K: G Major
S: Trad
|: D2 G2 DG B2 | c2 A2 A4 | FG A2 FG A2 | GABc d4 |
edce d2 B2 | cBAB A2 G2 | D2 G2 FGAB |1 A2 G2 G4 :|2 A2 G2 GABc ||
|: d2 B2 cd e2 | e2 A2 A2 Bc | d2 B2 cd e2 | edcB A4 |
GABc d2 B2 | cBAB A2 G2 | D2 G2 FGAB |1 A2 G2 GABc :|2 A2 G2 G4 ||
